car-brake-worn-linings.svg

<svg fill="currentColor" viewBox="0 0 24 24"><path d="M12 5c3.86 0 7 3.14 7 7s-3.14 7-7 7-7-3.14-7-7 3.14-7 7-7m0-2a9 9 0 1 0 .001 18.001A9 9 0 0 0 12 3M4.58 4.58 3.5 3.5A12.3 12.3 0 0 0 .861 7.55L2.3 8a10.7 10.7 0 0 1 2.28-3.42M1.71 14.1Q1.5 13.08 1.5 12t.21-2.1L.275 9.46C.098 10.28 0 11.13 0 12s.098 1.72.275 2.54zm21.43-6.55c-.61-1.52-1.51-2.9-2.64-4.05l-1.08 1.08c.97.98 1.74 2.13 2.28 3.42zM.861 16.45C1.47 18 2.37 19.35 3.5 20.5l1.08-1.08A10.7 10.7 0 0 1 2.3 16zm18.559 2.97 1.08 1.08c1.13-1.15 2.03-2.5 2.64-4.05L21.7 16a10.7 10.7 0 0 1-2.28 3.42m2.87-9.52q.21 1.02.21 2.1t-.21 2.1l1.44.44c.17-.82.27-1.67.27-2.54s-.1-1.72-.27-2.54z"/></svg>

<svg  viewBox="0 0 24 24" fill="currentColor"><path  d="M12 5C15.86 5 19 8.14 19 12S15.86 19 12 19 5 15.86 5 12 8.14 5 12 5M12 3C7.03 3 3 7.03 3 12S7.03 21 12 21 21 16.97 21 12 16.97 3 12 3M4.58 4.58L3.5 3.5C2.37 4.65 1.47 6.03 .861 7.55L2.3 8C2.84 6.71 3.61 5.56 4.58 4.58M1.71 14.1C1.57 13.42 1.5 12.72 1.5 12C1.5 11.28 1.57 10.58 1.71 9.9L.275 9.46C.098 10.28 0 11.13 0 12S.098 13.72 .275 14.54L1.71 14.1M23.14 7.55C22.53 6.03 21.63 4.65 20.5 3.5L19.42 4.58C20.39 5.56 21.16 6.71 21.7 8L23.14 7.55M.861 16.45C1.47 18 2.37 19.35 3.5 20.5L4.58 19.42C3.61 18.44 2.84 17.29 2.3 16L.861 16.45M19.42 19.42L20.5 20.5C21.63 19.35 22.53 18 23.14 16.45L21.7 16C21.16 17.29 20.39 18.44 19.42 19.42M22.29 9.9C22.43 10.58 22.5 11.28 22.5 12C22.5 12.72 22.43 13.42 22.29 14.1L23.73 14.54C23.9 13.72 24 12.87 24 12S23.9 10.28 23.73 9.46L22.29 9.9Z"/></svg>
